X:1
T:The Gospel Train
T:Charles Austn Miles, 1917
T:The Gospel Train
T:Public Domain
T:Public Domain
T:Public Domain
C:Charles Austn Miles, 1917
Z:Public Domain
%%score ( 1 2 ) ( 3 4 )
L:1/8
M:4/4
K:G
V:1 treble 
V:2 treble 
V:3 bass 
V:4 bass 
V:1
 G2 | [GB]2 [GB]2 [FA]2 G>[FA] | [GB]2 [GB]2 [FA]2 G>[FA] | [GB][GB] [GB]2 [Fc]2 [FA]2 | %4
w: 1.~I’m|eling now on the saf-|road, That a trav- el-|ev- er found, My right|
w: 2.~The|of God is my or-|now, And I’m ru- n-|right on time, I’m all|
w: 3.~My|ing stock is the best|made, In the Go- s-|shop down here, From pi-|
w: 4.~I|my road has a tun-|too, But my la- mps|oil are filled. And I’ll|
w: 5.~My|shall end at the Grand|pot, Where the Sup- er-|tend- ent waits; Re- ceive|
 [Gd]6 [GB]2 | [Fc]2 [Fc]2 [FA]2 [^E^G]>[FA] | [GB]2 [GB]2 G2 [GB]>[GB] | %7
w: of way|is the Word of God,|And it runs up- on|
w: prayed up|and with sig- nals clear,|Up the grade I’m pre-|
w: lot’s nose|on the en- gine front,|To the ma- rk- ers|
w: pass thro’|with the Gos- pel train,|As the Sup- er- in-|
w: my pay|with a glad “Well done,”|As I pass through the|
 [FA][FA] A2 [GB]2 [G^c]2 | [Fd]6 ||"^Refrain" [FB]>[DA] | [DG]2 [DG]2 [DG]2 [DG]2 | %11
w: id ground. * * *||||
w: to climb. * * *||||
w: the rear. I am trav-|on|the hal-|le- lu- jah line,|
w: ent willed. * * *||||
w: pen gates. * * *||||
 [EG]>[EA] [EG]>[CE] [B,D]2 [B,D]>[B,D] | [DG] [DG]3 [GB]2 [GB]2 | [FA]6 [FB]>[FA] | %14
w: |||
w: |||
w: On the good old Gos- pel train,|I am on the|right track and|
w: |||
w: |||
 [DG]>[DG] [DG]2 [DG]2 [DG]2 | [EG]>[EA] [EG]>[CE] [B,D]2 [DG]>[DA] | [GB][GB] [GB]2 [FA]2 [FA]2 | %17
w: |||
w: |||
w: nev- er will go back|To the sta- tion of sin a-|gain. I need no fare,|
w: |||
w: |||
 G6 [GB]2 | [Gd]2 [Gd]2 [Gd]2 [GB]2 | [Gd]>[Ge] [Gd]>[Ge] [Gd]2 [GB]>[FA] | %20
w: |||
w: |||
w: I’m rid-|on a pass, ’Tis|the blood for sin- ners slain, I|
w: |||
w: |||
 [DG]2 [DG]2 [GB] [GB]3 | [FA]6 [FB]>[FA] | [DG]>[DG] [DG]2 [DG]2 [DG]2 | %23
w: |||
w: |||
w: am trav- el- ing|on the hal-|le- lu- jah line, On|
w: |||
w: |||
 [EG]>[EA] [EG]>[CE] [B,D]2 [DG]>[DA] | [GB]2 [GB]2 [FA]2 [FA]2 | G6 |] %26
w: |||
w: |||
w: the good old Gos- pel train. *|||
w: |||
w: |||
V:2
 G2 | x6 G3/2 x/ | x6 G3/2 x/ | x8 | x8 | x8 | x4 G2 x2 | x2 A2 x4 | x6 || x2 | x8 | x8 | x8 | x8 | %14
w: trav-|est|er||||sol-||||||||
w: will|ders|ning||||pared||||||||
w: roll-|that’s|pel||||in|eling|||||||
w: know|nel,|with||||tend-||||||||
w: run|De-|in-||||o-||||||||
 x8 | x8 | x8 | G6 x2 | x8 | x8 | x8 | x8 | x8 | x8 | x8 | G6 |] %26
w: ||||||||||||
w: ||||||||||||
w: |||ing|||||||||
w: ||||||||||||
w: ||||||||||||
V:3
 [G,B,]2 | [G,D]2 [G,D]2 [D,C]2 [D,B,]>[D,C] | [G,D]2 [G,D]2 [D,C]2 [D,B,]>[D,C] | %3
 [G,D][G,D] [G,D]2 [A,D]2 [D,D]2 | [G,B,]6 [G,D]2 | [A,D]2 [A,D]2 [D,D]2 [D,D]>[D,D] | %6
 [G,D]2 [G,D]2 [G,B,]2 [G,D]>[G,D] | [A,D][A,D] [F,D]2 [E,A,]2 [A,,A,]2 | [D,A,]6 || [D,D]>[D,C] | %10
 [G,B,]2 [G,B,]2 [G,B,]2 [G,B,]2 | [C,C]>[C,C] [C,C]>[E,G,] G,2 G,>G, | %12
 [G,B,] [G,B,]3 [G,D]2 [G,D]2 | [D,D]6 [D,D]>[D,C] | [G,B,]>[G,B,] [G,B,]2 [G,B,]2 [G,B,]2 | %15
 [C,C]>[C,C] [C,C]>[E,G,] G,2 [G,B,]>[G,C] | [G,D][G,D] [G,D]2 [D,C]2 [D,C]2 | [G,B,]6 [G,D]2 | %18
 [G,B,]2 [G,B,]2 [G,B,]2 [G,D]2 | [G,B,]>[G,C] [G,B,]>[G,C] [G,B,]2 [G,D]>[G,C] | %20
 [G,B,]2 [G,B,]2 [G,D] [G,D]3 | [D,D]6 [D,D]>[D,C] | [G,B,]>[G,B,] [G,B,]2 [G,B,]2 [G,B,]2 | %23
 [C,C]>[C,C] [C,C]>[E,G,] G,2 [G,B,]>[G,C] | [G,D]2 [G,D]2 [D,C]2 [D,C]2 | [G,B,]6 |] %26
V:4
 x2 | x8 | x8 | x8 | x8 | x8 | x8 | x8 | x6 || x2 | x8 | x4 G,2 G,>G, | x8 | x8 | x8 | x4 G,2 x2 | %16
 x8 | x8 | x8 | x8 | x8 | x8 | x8 | x4 G,2 x2 | x8 | x6 |] %26

